public/library/taikoscan-text-dark.svg

<svg width="539" height="163" viewBox="0 0 539 163" fill="none" xmlns="http://www.w3.org/2000/svg">
<path d="M302.865 125.657C300.249 129.381 296.778 132.148 292.452 133.96C288.125 135.671 283.296 136.526 277.963 136.526C273.738 136.526 269.864 136.023 266.342 135.017C262.921 134.01 259.903 132.5 257.287 130.488C254.671 128.374 252.609 125.808 251.1 122.789C249.591 119.669 248.836 116.146 248.836 112.221C248.836 107.894 249.691 104.22 251.402 101.201C253.112 98.081 255.426 95.565 258.344 93.6528C261.362 91.7405 264.883 90.3316 268.908 89.4258C272.933 88.4193 277.159 87.9162 281.586 87.9162H301.96C301.96 82.0789 300.651 77.5501 298.035 74.3295C295.419 71.109 290.842 69.4484 284.302 69.3477C280.479 69.3477 277.159 70.002 274.342 71.3102C271.624 72.6186 269.814 74.7824 268.908 77.8017H251.25C251.854 73.5747 253.213 70.002 255.325 67.0833C257.539 64.1647 260.155 61.7493 263.173 59.8372C266.292 57.9249 269.713 56.5663 273.436 55.7612C277.259 54.9559 281.082 54.5535 284.906 54.5535C289.836 54.5535 294.414 55.2076 298.64 56.516C302.865 57.8242 306.538 60.0384 309.656 63.1582C313.177 66.7813 315.543 71.109 316.75 76.1411C317.957 81.1731 318.561 86.6582 318.561 92.596V135.469H303.62L302.865 125.657ZM301.96 100.144H285.359C282.441 100.144 279.523 100.396 276.606 100.899C273.688 101.302 271.172 102.358 269.06 104.069C267.047 105.68 266.041 108.045 266.041 111.164C266.041 114.989 267.399 117.907 270.115 119.92C272.933 121.832 276.354 122.789 280.379 122.789C283.497 122.789 286.364 122.386 288.98 121.581C291.698 120.776 294.012 119.467 295.923 117.656C297.835 115.744 299.294 113.379 300.299 110.561C301.406 107.642 301.96 104.17 301.96 100.144Z" fill="white"/>
<path d="M346.845 22.8512C349.965 22.8512 352.53 23.8073 354.543 25.7195C356.655 27.6317 357.712 30.2484 357.712 33.5696C357.712 36.7901 356.655 39.3565 354.543 41.2687C352.53 43.1808 349.965 44.137 346.845 44.137C343.526 44.137 340.858 43.1808 338.847 41.2687C336.835 39.3565 335.828 36.7901 335.828 33.5696C335.828 30.2484 336.835 27.6317 338.847 25.7195C340.858 23.8073 343.526 22.8512 346.845 22.8512ZM338.092 135.469V55.9121H355.297V135.469H338.092Z" fill="white"/>
<path d="M492.037 54.5535C498.374 54.5535 503.959 55.5598 508.788 57.5727C513.618 59.5855 517.693 62.4034 521.012 66.0265C524.433 69.5491 526.999 73.8263 528.71 78.8584C530.42 83.8906 531.275 89.4761 531.275 95.6153C531.275 101.855 530.42 107.491 528.71 112.523C527.099 117.455 524.635 121.732 521.314 125.355C517.994 128.978 513.869 131.745 508.939 133.657C504.11 135.57 498.476 136.526 492.037 136.526C485.698 136.526 480.114 135.57 475.284 133.657C470.454 131.645 466.38 128.878 463.06 125.355C459.84 121.732 457.375 117.404 455.664 112.372C454.055 107.34 453.25 101.755 453.25 95.6153C453.25 89.4761 454.055 83.8906 455.664 78.8584C457.375 73.8263 459.89 69.5491 463.21 66.0265C466.531 62.4034 470.606 59.5855 475.436 57.5727C480.264 55.5598 485.798 54.5535 492.037 54.5535ZM492.037 121.581C495.96 121.581 499.281 120.927 501.997 119.618C504.814 118.209 507.077 116.348 508.788 114.033C510.6 111.718 511.907 109.001 512.712 105.881C513.618 102.761 514.071 99.3894 514.071 95.7663C514.071 92.1431 513.618 88.7717 512.712 85.6517C511.907 82.4312 510.6 79.6636 508.788 77.3488C507.077 75.034 504.814 73.2225 501.997 71.9141C499.281 70.6058 495.96 69.9516 492.037 69.9516C488.212 69.9516 484.943 70.6058 482.227 71.9141C479.509 73.2225 477.246 75.034 475.436 77.3488C473.624 79.6636 472.265 82.4312 471.36 85.6517C470.556 88.7717 470.153 92.1431 470.153 95.7663C470.153 99.3894 470.556 102.761 471.36 105.881C472.265 109.001 473.574 111.718 475.284 114.033C477.095 116.348 479.359 118.209 482.075 119.618C484.893 120.927 488.212 121.581 492.037 121.581Z" fill="white"/>
<path d="M404.636 88.3691H392.261V31.8953H375.207V135.469H392.261V103.314H405.693L426.67 135.469H446.592L419.426 93.8037L444.479 55.912H425.161L404.636 88.3691Z" fill="white"/>
<path d="M237.203 55.686H216.831V31.8953H211.566L186.809 65.5419V69.8929H199.523V109.269C199.523 118.564 201.616 125.255 205.803 129.34C210.091 133.427 217.188 135.469 227.093 135.469H236.59V120.454H228.625C224.03 120.454 220.915 119.331 219.281 117.083C217.648 114.836 216.831 111.414 216.831 106.818V69.8929H237.203V55.686Z" fill="white"/>
<path d="M164.254 127.955L136.832 90.6886C133.854 86.639 129.443 84.2132 124.745 83.6783C123.676 83.5542 122.721 82.9334 122.186 81.9974C121.642 81.0614 121.584 79.9249 122.014 78.9316C123.895 74.5956 124.01 69.5624 121.985 64.959L103.434 22.573C100.684 16.2792 94.4683 12.2201 87.6033 12.2201C80.7383 12.2201 74.5226 16.2887 71.7728 22.573L53.2211 64.959C51.2065 69.5624 51.3115 74.5956 53.1925 78.9316C53.6221 79.9249 53.5553 81.0614 53.0207 81.9974C52.4764 82.9334 51.5311 83.5542 50.4618 83.6783C45.7642 84.2132 41.3531 86.639 38.374 90.6886L10.9523 127.955C6.88491 133.486 6.47434 140.896 9.90205 146.847C13.3394 152.787 19.9655 156.139 26.7828 155.385L72.7562 150.266C77.7499 149.712 82.056 147.105 84.863 143.303C85.5028 142.434 86.5244 141.918 87.6033 141.918C88.6823 141.918 89.6943 142.434 90.3435 143.303C93.1507 147.105 97.4568 149.712 102.45 150.266L148.423 155.385C155.241 156.149 161.867 152.796 165.304 146.847C168.732 140.896 168.321 133.486 164.254 127.955ZM65.2133 70.2787L83.7937 27.845C84.462 26.3265 85.9611 25.3427 87.6128 25.3427C89.2646 25.3427 90.7637 26.3265 91.4321 27.845L110.012 70.2787C110.595 71.6158 110.471 73.163 109.669 74.3854C108.867 75.6079 107.511 76.3434 106.04 76.3434H69.1757C67.7149 76.3434 66.3496 75.6079 65.5475 74.3854C64.7455 73.163 64.6308 71.6158 65.2133 70.2787ZM74.7518 134.88C74.0929 136.188 72.8135 137.067 71.3622 137.228L25.3411 142.348C23.6988 142.53 22.0947 141.727 21.2642 140.295C20.4335 138.862 20.5385 137.077 21.5219 135.739L48.9723 98.4341C49.8412 97.2593 51.2352 96.5908 52.696 96.6768C54.1568 96.7532 55.4745 97.565 56.2097 98.8352L56.2382 98.8829L74.6181 130.725L74.6467 130.772C75.3819 132.043 75.4201 133.59 74.7613 134.889L74.7518 134.88ZM91.3843 120.477C90.6014 121.824 89.1693 122.664 87.6033 122.664C86.0471 122.664 84.6053 121.833 83.8224 120.487L69.701 96.0273C68.918 94.6807 68.918 93.0093 69.701 91.6627C70.4839 90.316 71.916 89.4756 73.4819 89.4756H101.715C103.272 89.4756 104.713 90.297 105.496 91.6531C106.279 93.0093 106.279 94.6711 105.496 96.0178L91.3843 120.477ZM153.953 140.295C153.121 141.727 151.527 142.54 149.875 142.358L103.854 137.238C102.403 137.077 101.123 136.198 100.464 134.889C99.8056 133.581 99.8438 132.034 100.579 130.772L100.608 130.725L118.987 98.8829L119.016 98.8352C119.751 97.565 121.069 96.7532 122.53 96.6768C123.991 96.6004 125.384 97.2593 126.253 98.4341L153.704 135.739C154.687 137.077 154.774 138.862 153.953 140.295Z" fill="#E81899"/>
</svg>

<svg xmlns="http://www.w3.org/2000/svg" width="539" height="163" fill="none" viewBox="0 0 539 163"><path fill="#fff" d="M302.865 125.657q-3.924 5.586-10.413 8.303-6.49 2.566-14.489 2.566-6.338 0-11.621-1.509-5.131-1.51-9.055-4.529a23 23 0 0 1-6.187-7.699q-2.264-4.68-2.264-10.568 0-6.491 2.566-11.02 2.565-4.68 6.942-7.548 4.527-2.869 10.564-4.227 6.037-1.51 12.678-1.51h20.374q0-8.756-3.925-13.586-3.924-4.832-13.733-4.982-5.735 0-9.96 1.962-4.076 1.963-5.434 6.492H251.25q.906-6.34 4.075-10.719 3.321-4.378 7.848-7.246 4.679-2.868 10.263-4.076a55.5 55.5 0 0 1 11.47-1.208q7.395 0 13.734 1.963 6.338 1.962 11.016 6.642 5.282 5.435 7.094 12.983 1.81 7.548 1.811 16.455v42.873H303.62zm-.905-25.513h-16.601q-4.377 0-8.753.755-4.378.604-7.546 3.17-3.02 2.416-3.019 7.095 0 5.737 4.074 8.756 4.227 2.869 10.264 2.869 4.677 0 8.601-1.208 4.077-1.208 6.943-3.925 2.868-2.868 4.376-7.095 1.66-4.378 1.661-10.417M346.845 22.851q4.68 0 7.698 2.869 3.168 2.867 3.169 7.85 0 4.83-3.169 7.699-3.019 2.868-7.698 2.868-4.98 0-7.998-2.868-3.019-2.869-3.019-7.7 0-4.98 3.019-7.85 3.018-2.868 7.998-2.868m-8.753 112.618V55.912h17.205v79.557zM492.037 54.554q9.506 0 16.751 3.019t12.224 8.453q5.131 5.284 7.698 12.832 2.565 7.549 2.565 16.757 0 9.36-2.565 16.908-2.416 7.398-7.396 12.832t-12.375 8.302q-7.244 2.87-16.902 2.869-9.508 0-16.753-2.869-7.245-3.018-12.224-8.302-4.83-5.435-7.396-12.983-2.414-7.548-2.414-16.757 0-9.208 2.414-16.757 2.566-7.548 7.546-12.832 4.981-5.434 12.226-8.453 7.242-3.02 16.601-3.02m0 67.027q5.885 0 9.96-1.963 4.225-2.113 6.791-5.585 2.717-3.472 3.924-8.152 1.359-4.68 1.359-10.115 0-5.434-1.359-10.114-1.207-4.83-3.924-8.303-2.566-3.473-6.791-5.435-4.075-1.962-9.96-1.962-5.737 0-9.81 1.962-4.077 1.962-6.791 5.435-2.718 3.472-4.076 8.303-1.207 4.68-1.207 10.114t1.207 10.115q1.358 4.68 3.924 8.152 2.717 3.472 6.791 5.585 4.226 1.963 9.962 1.963M404.636 88.37h-12.375V31.894h-17.054V135.47h17.054v-32.155h13.432l20.977 32.155h19.922l-27.166-41.665 25.053-37.892h-19.318zM237.203 55.686h-20.372v-23.79h-5.265l-24.757 33.646v4.35h12.714v39.377q0 13.943 6.28 20.071 6.432 6.13 21.29 6.129h9.497v-15.015h-7.965q-6.893 0-9.344-3.371t-2.45-10.265V69.893h20.372z"/><path fill="#e81899" d="m164.254 127.955-27.422-37.266a17.4 17.4 0 0 0-12.087-7.01 3.404 3.404 0 0 1-2.731-4.747 17.4 17.4 0 0 0-.029-13.973l-18.551-42.386a17.27 17.27 0 0 0-15.83-10.353 17.29 17.29 0 0 0-15.831 10.353L53.22 64.959a17.43 17.43 0 0 0-.028 13.973c.43.993.362 2.13-.172 3.065a3.41 3.41 0 0 1-2.56 1.681 17.4 17.4 0 0 0-12.087 7.01l-27.422 37.267a17.3 17.3 0 0 0-1.05 18.892 17.31 17.31 0 0 0 16.88 8.538l45.974-5.119a17.38 17.38 0 0 0 12.107-6.963 3.41 3.41 0 0 1 2.74-1.385c1.08 0 2.091.516 2.74 1.385a17.38 17.38 0 0 0 12.107 6.963l45.973 5.119a17.28 17.28 0 0 0 16.881-8.538 17.3 17.3 0 0 0-1.05-18.892m-99.04-57.676 18.58-42.434a4.18 4.18 0 0 1 3.819-2.502 4.18 4.18 0 0 1 3.82 2.502l18.579 42.434a4.328 4.328 0 0 1-3.972 6.065H69.176a4.34 4.34 0 0 1-3.629-1.959 4.33 4.33 0 0 1-.334-4.106m9.538 64.601a4.33 4.33 0 0 1-3.39 2.348l-46.02 5.12a4.18 4.18 0 0 1-4.078-2.053 4.16 4.16 0 0 1 .258-4.556l27.45-37.305a4.32 4.32 0 0 1 3.724-1.757 4.32 4.32 0 0 1 3.514 2.158l.028.048 18.38 31.842.029.047a4.32 4.32 0 0 1 .114 4.117zm16.632-14.403a4.37 4.37 0 0 1-3.78 2.187 4.38 4.38 0 0 1-3.782-2.177l-14.121-24.46a4.35 4.35 0 0 1 0-4.364 4.38 4.38 0 0 1 3.78-2.187h28.234c1.557 0 2.998.821 3.781 2.177a4.35 4.35 0 0 1 0 4.365zm62.569 19.818a4.18 4.18 0 0 1-4.078 2.063l-46.021-5.12a4.327 4.327 0 0 1-3.275-6.466l.029-.047 18.379-31.842.029-.048a4.32 4.32 0 0 1 3.514-2.158 4.34 4.34 0 0 1 3.723 1.757l27.451 37.305a4.18 4.18 0 0 1 .249 4.556"/></svg>
